!!!!SEGMENT: pl-kc--40102-iii-1-saf--002-032_zielenski-mikolaj--communiones-totius-anni-in-festo-s-matthiae-apostoli-vos-qui-secuti-estis-me.krn
!!!cenid: 16xx:1563
!!!COM: Zieleński, Mikołaj
!!!COM-rismID: pe30013481
!!!CDT: <1611->1611
!!!CNT: Polish
!!!GTL: Communiones totius anni
!!!OTL: In festo S. Matthiae Apostoli/Vos qui secuti estis me
!!!OMV: 032
!!!PDT: 1611
!!!AGN:
!!!SMS-siglum: PL-Kc
!!!SMS-shelfmark: 40102 III/1 Saf.
!!!SMS-shelfwork: 002-032 G
!!!SMS-variant:
!!!SMS-altvar:
!!!NIFC-rismSourceID: 990069887
!!!NIFC-islandoraID:
!!!URL-pdf-islandora:
!!!URL-scan: https://cyfrowe.mnk.pl/dlibra/publication/24235/edition/23926/content?ref=desc @EN{Scan on The National Museum in Krakow Website} @PL{Skany w portalu Biblioteka Cyfrowa Muzeum Narodowego w Krakowie}
!!!ONB-nifc: UWAGA: str. 60. Numer w źródle: 37. Uwaga: W xml metrum 2/1 do źródłowego C| i odpowiednio 3/1 do 3/2
!!!AIN: 4 organ
!!!key:
**kern	**kern	**kern	**kern
*part4	*part3	*part2	*part1
*staff4	*staff3	*staff2	*staff1
*I"	*I"	*I"	*I"Organo
*I'	*I'	*I'	*I'org
*Iorgan	*Iorgan	*Iorgan	*Iorgan
*ICklav	*ICklav	*ICklav	*ICklav
*clefF3	*clefC3	*clefC2	*clefG2
*k[]	*k[]	*k[]	*k[]
*C:	*C:	*C:	*C:
*M2/1	*M2/1	*M2/1	*M2/1
*met(C|)	*met(C|)	*met(C|)	*met(C|)
=1	=1	=1	=1
!	!	!	!LO:TX:a:t=37. In feſto S. Matthiae Apoſtli. à 4.
!	!	!	!LO:TX:b:t=Vos qui ſecuti eſtis me
00r	0r	1c	1r
.	.	2f\	2r
.	.	2e/	2g/
.	2r	2f\	2cc\
.	2G/	2.g\	2b/
.	2c/	.	2cc\
.	.	8f\	.
.	.	8e\	.
.	2B/	2d/	2dd\
=3	=3	=3	=3
1r	2c/	2a\	2ee\
.	2d\	2a\	2ff\
1C	4e\	1g	2.ee\
.	4d\	.	.
.	4c/	.	.
.	4B/	.	8dd\
.	.	.	8cc\
=4-	=4-	=4-	=4-
2F/	2A/	2r	4dd\
.	.	.	4cc\
2E/	2c/	2e/	2.cc\
2F/	1d	2a\	.
.	.	.	8b/
.	.	.	8a/
2G\	.	2g\	2b/
=5-	=5-	=5-	=5-
2.A\	[<1c	2f\	2.cc\
.	.	4e/	.
4B\	.	4d/	8b/
.	.	.	8a/
=	=	=	=
2c\	1c]	2e/	4g/
.	.	.	4f#X/
2C/	.	2e/	4g/
.	.	.	4a/
=6-	=6-	=6-	=6-
4G\	2r	2d/	1b
4F\	.	.	.
4E/	2G/	2.g\	.
4D/	.	.	.
2C/	2c/	.	0r
.	.	8f\	.
.	.	8e\	.
2G\	2B/	4d/	.
.	.	4e/	.
=7-	=7-	=7-	=7-
2A\	2c/	4f\	.
.	.	4e/	.
2F#X/	2d\	[y2a\	.
=	=	=	=
!	!	!LO:N:xstem:cue	!
2G\	2B/	4a\]	0r
.	.	4g\	.
2E/	4A/	2.g\	.
.	4G/	.	.
=8-	=8-	=8-	=8-
2.D/	2A/	.	.
.	.	8f#X\	.
.	.	8e\	.
.	2A/	2f#\	.
4D/	.	.	.
1G	2.B/	1g	2r
.	.	.	2b/
.	4G/	.	.
=9-	=9-	=9-	=9-
1r	2c/	2r	2ee\
.	2B/	2g\	2dd\
=	=	=	=
0r	2c/	2cc\	4ee\
.	.	.	8dd\
.	.	.	8ee\
.	2d\	2b\	2ff\
=10-	=10-	=10-	=10-
.	4e\	2cc\	2ee\
.	8d\	.	.
.	8c\	.	.
!	!	!LO:N:vis=2.	!
.	8B/	2dd\	2.gg\
.	8c/	.	.
.	8d\	.	.
.	8B/	.	.
1r	2c/	2cc\	.
.	.	.	8ff#X\
.	.	.	8ee\
.	2d\	2a\	2ff#\
=11-	=11-	=11-	=11-
2r	2.e\	1g	2.gg\
2G\	.	.	.
.	4d\	.	4ff#\
*custos:c	*custos:e	*custos:g	*custos:ee
!!linebreak:original
=	=	=	=
2c\	4e\	2r	2ee\
.	4c/	.	.
2B\	2d\	2g\	2dd\
=12-	=12-	=12-	=12-
2c\	2.g\	2e/	2.ee\
2C/	.	2c/	.
.	8f\	.	8dd\
.	8e\	.	8cc\
4G\	4d\	2d/	4b/
8F/	4e\	.	4cc\
8E/	.	.	.
8D/	2.f\	2a\	2.dd\
8E/	.	.	.
8F/	.	.	.
8D/	.	.	.
=13-	=13-	=13-	=13-
2.A\	.	(<1a	.
.	8e\	.	8cc\
.	8d\	.	8b\
.	[y2e\	.	[y2cc\
8G\	.	.	.
8F\	.	.	.
=	=	=	=
!	!LO:N:xstem:cue	!	!LO:N:xstem:cue
2.E/	4e\]	2.g\)	4cc\]
.	8d\	.	8b/
.	8c\	.	8a/
.	4B/	.	4g/
8D/	4c/	8f\	4a/
8C/	.	8e\	.
=14-	=14-	=14-	=14-
2G\	4d\	4d/	4b/
.	4e\	4c/	2cc\
2GG/	2d\	2d/	.
.	.	.	4b/
1C	2c/	4e/	1.cc
.	.	2g\	.
.	4r	.	.
.	2c/	8f\	.
.	.	8e\	.
=15-	=15-	=15-	=15-
1r	.	2.a\	.
.	8B/	.	.
.	8A/	.	.
.	2B/	.	2r
.	.	[<4g\	.
=	=	=	=
1r	4.A/	4g\]	4r
.	.	4f#X\	2cc\
.	8A/	.	.
.	2G/	1g\	.
.	.	.	4b/
=16-	=16-	=16-	=16-
2r	4r	.	4.ee\
.	2c/	.	.
.	.	.	8ee\
4r	.	4r	2dd\
[<4G\	8B/	[<4b\	.
.	8A/	.	.
=	=	=	=
4G\]	4B/	4b\]	1r
8F/	2e\	4g\	.
8E/	.	.	.
2F/	.	4.a\	.
.	4d\	.	.
.	.	8a\	.
=17-	=17-	=17-	=17-
4.E/	4e\	4.g\	4r
.	2e\	.	2gg\
8F/	.	8a\	.
4G\	.	4b\	.
4A\	4c/	4cc\	4ee\
=	=	=	=
4F/	4.d\	2a\	4.ff\
8E/	.	.	.
8D/	8d\	.	8ff\
4A\	4c/	2a\	2ee\
2c\	2e\	.	.
=18-	=18-	=18-	=18-
.	.	2g\	1r
4B\	4d\	.	.
2A\	2c/	2.cc\	.
2G\	2.d\	.	4r
.	.	4b\	2gg\
2r	.	2a\	.
.	4d\	.	4ff\
=19-	=19-	=19-	=19-
4r	4e\	2.g\	2ee\
2C/	4c/	.	.
.	2d\	.	2dd\
4BB/	.	4g\	.
=	=	=	=
2AA/	2.e\	2a\	4r
.	.	.	2cc\
2E/	.	2g\	.
.	4d\	.	4b/
=20-	=20-	=20-	=20-
2.F/	4c/	2f\	4a/
.	4A/	.	4a/
.	1d	2.a\	2.ff\
4E/	.	.	.
2D/	.	.	.
.	.	4g\	4ee\
2B-X\	2d\	4f\	2.dd\
.	.	8e/	.
.	.	8d/	.
=21-	=21-	=21-	=21-
1A	1e	2.a\	.
.	.	.	8cc#X\
.	.	.	8b\
.	.	.	2cc#\
.	.	4g\	.
=	=	=	=
1D	2d\	1f#X	0dd
.	4d\	.	.
.	4d\	.	.
=22-	=22-	=22-	=22-
2r	8B/	1g	.
.	8G/	.	.
.	8B/	.	.
.	8c/	.	.
4G\	4d\	.	.
4G\	4B/	.	.
8E/	4.e\	2r	1r
8C/	.	.	.
8E/	.	.	.
8F/	16d\	.	.
.	16c/	.	.
4G\	4B/	4g\	.
8F/	4B/	4g\	.
8E/	.	.	.
=23-	=23-	=23-	=23-
2A\	2c/	8e/	2r
.	.	8c/	.
.	.	8e/	.
.	.	8f#\	.
2G\	2B/	4g\	4dd\
.	.	4d/	4dd\
=	=	=	=
1r	0r	4.e/	8b/
.	.	.	8g/
.	.	.	8a/
.	.	16d/	8b/
.	.	16c/	.
.	.	4B/	4.dd\
.	.	2g\	.
.	.	.	16cc\
.	.	.	16b\
=24-	=24-	=24-	=24-
2r	.	.	2a/
.	.	4f#X\	.
!	!	!	!LO:TX:t=P:problem=wykreślona kreska taktowa
4G\	.	1g	2b/
4G\	.	.	.
8E/	4c/	.	0r
8C/	.	.	.
8E/	4c/	.	.
8F/	.	.	.
4G\	8B/	2r	.
.	8G/	.	.
4E/	8B#X/	.	.
.	8c/	.	.
=25-	=25-	=25-	=25-
4D/	4d\	2r	.
4G\	4B#/	.	.
2C/	2e\	4cc\	.
.	.	4cc\	.
=	=	=	=
1G	4.d\	8b\	2r
.	.	8g\	.
.	.	8b\	.
.	8c/	8cc\	.
.	4B/	4dd\	4gg\
.	4d\	8cc\	4gg\
.	.	8b\	.
=26-	=26-	=26-	=26-
1r	4.a\	4.cc\	8ee\
.	.	.	8cc\
.	.	.	8ee\
.	16g\	16b\	8ff\
.	16f\	16a\	.
.	8e\	4.g\	2gg\
.	8c\	.	.
.	8e\	.	.
.	8f\	8a\	.
0r	4g\	4b\	4dd\
.	4d\	4dd\	4gg\
.	2.d\	2.dd\	2.ff\
=27-	=27-	=27-	=27-
.	.	.	.
.	4d\	4dd\	4ff\
.	2A/	2cc\	2ee\
*custos:G	*custos:B	*custos:b	*custos:dd
!!linebreak:original
=	=	=	=
0r	4B/	2.b\	2.dd\
.	4G/	.	.
.	4B/	.	.
.	4c/	8a\	8cc\
.	.	8g\	8b\
=28-	=28-	=28-	=28-
.	2d\	4f#X\	2a/
.	.	4f#\	.
.	2G/	[<2g\	2b/
=	=	=	=
1r	2.d\	4g\]	2.a/
.	.	8f#\	.
.	.	8e\	.
.	.	2f#\	.
.	4d\	.	4a/
=29-	=29-	=29-	=29-
4G\	2d\	2g\	2b/
4G\	.	.	.
8E/	4c/	4g\	2r
8C/	.	.	.
8E/	4c/	4g\	.
8F\	.	.	.
2G\	8B/	8d/	2r
.	8A/	8c/	.
.	8B/	8d/	.
.	8c/	8e/	.
2D/	4.d\	4fny\	4ff\
.	.	8a\	4ff\
.	8e\	8a\	.
=30	=30	=30	=30
2r	2f\	8a\	8cc\
.	.	8g\	8b\
.	.	8a\	8cc\
.	.	8b\	8dd\
4C/	2c/	1cc	1ee
4C/	.	.	.
8E/	4G/	.	.
8C/	.	.	.
8E/	4G/	.	.
8F/	.	.	.
2G\	8B/	2.b\	2.dd\
.	8G/	.	.
.	8B/	.	.
.	8c/	.	.
=31-	=31-	=31-	=31-
4G\	4d\	.	.
4D/	4d\	4a\	4ff\
4.D/	4.d\	4.a\	4.ff\
8E/	16c/	8a\	16ee\
.	16B/	.	16dd\
2F/	8A/	2a\	8cc\
.	8G/	.	8b\
.	8A/	.	8cc\
.	8B/	.	8dd\
2C/	4c/	2g\	4ee\
.	4d\	.	4ff\
=32	=32	=32	=32
2c\	4e\	2g\	2ee\
.	4f\	.	.
2B\	4g\	2.g\	2dd\
.	4d\	.	.
2.A\	2e\	.	2cc\
.	.	8f#X\	.
.	.	8e\	.
.	4d\	2f#\	2cc\
4A\	4c/	.	.
=33-	=33-	=33-	=33-
4G\	4d\	4g\	4b/
4G\	4B/	4g\	4dd\
2G\	2B/	2g\	2dd\
2D/	4d\	2a\	2ff\
.	8c/	.	.
.	8B/	.	.
2F/	4A/	2a\	2cc\
.	4B/	.	.
=34	=34	=34	=34
4C/	4c/	2.g\	2.ee\
4D/	8B/	.	.
.	8A/	.	.
4E/	4G/	.	.
4F/	4A/	8f\	8dd\
.	.	8e\	8cc\
2G\	2B/	4d/	4b/
.	.	4e/	4cc\
2D/	2A/	2f\	4dd\
.	.	.	4cc\
=35-	=35-	=35-	=35-
2.E/	2.e\	2.g\	4b/
.	.	.	4g/
.	.	.	2.gg\
4F\	8d\	8f\	.
.	8c\	8e\	.
1G	2B/	2d/	.
.	.	.	4ff\
.	[y2g\	2c/	2ee\
=36	=36	=36	=36
!	!LO:N:xstem:cue	!	!
1G	4g\]	2B/	2dd\
.	4f\	.	.
.	4e\	1g	2.cc\
.	8d\	.	.
.	8c\	.	.
1GG	2d\	.	.
.	.	.	8b/
.	.	.	8a/
.	2d\	2g\	2b\
=37-	=37-	=37-	=37-
0Cl	0cl	0el	0ccl
==	==	==	==
*-	*-	*-	*-
!!!system-decoration: [(s1,s2,s3,s4)]
!!!RDF**kern: l = terminal long
!!!RDF**kern: i = editorial accidental
!!!RDF**kern: > = above
!!!RDF**kern: < = below
!!!ENC: Katarzyna Serwa
!!!END: 2021-12-25
!!!ENC: Anastazja Marusiak
!!!END: 2021-12-21
!!!YEC: Copyright 2022 Narodowy Instytut Fryderyka Chopina (https://polishscores.org)
!!!YEM: Licence CC BY 4.0 (https://creativecommons.org/licenses/by/4.0)
